X: 11413
Q: "Very slow."
M: C
L: 1/16
K: A
c>B |!p!\
c3de3f e3cA3f | e3dc3d He6 f2 |
e3cB3A A3FE3c | B2A2F3G A6 zA/B/ |\
c3de3f e3dc3d | d3cf3e Ha6 f2 |\
e3cB3A A3FE3c | B3AF2G2 A6 |]


